X: 15527
T: Glentaun, The
R: reel
M: 4/4
K: Gmajor
|:DGBG AGBG|DGBG AE~E2|DGBG ~A2AB|dged BG~G2:|
|:Bdd^c d2ef|gbfa eA~A2|(3Bcd ef ~g2ge|dBAc BG~G2:|

